X:1
T:Mackadavie, The
T:W. D. "Billy" Clarke's Reel
C:Ed Cormier
L:1/8
M:4/4
I:linebreak $
K:A
V:1 treble
V:1
|: "A" c4 e3 c | A2 B2 cB A2 | "E"B2 Bc BA AB |"A"  c2 B2 AF E2 | $
"D"F2 AA BA AB | "A"c2 e2 fe cB | "D"A2 AB A F3 |  "E"E3 F EF A2 :| $
|:"E"B3 c B2 AB | "A"c2 B2 AF E2 | "D"F2 AB AF EF | "A"AB AF EF A2 |$ 
"E"B2 Bc BA AB |  ("A"^B<c) (B<c) =BA FE | "D"F2 AB A F3 |"E" E3 F EF A2 :|
